X:1
T:Out. JaW.330
L:1/8
Q:3/8=120
M:6/8
I:linebreak $
K:D
V:1 treble 
V:1
 D | FGF FED | FAA A2 d | Bdd Add | Bdd Add |$ FGF FED | FAA A2 d | BdB AGF | FEE E2 ::$ d | %10
 fgf fed | faa a2 g | fgf fed | gbb b2 a |$ faa eff | def fed | BdB AGF | FEE E2 :| %18
